build/Karasa-Jaga/scalable/status/star-new-symbolic.svg

<svg height="16" width="16" xmlns="http://www.w3.org/2000/svg"><g fill="#bebebe" transform="translate(0 -6)"><path d="m8.0117188 1.4746094-2.1621094 4.375-4.8320313.7011718 3.4941407 3.4082032-.8261719 4.8105466 4.3203125-2.269531.1230468.064453a4.3725681 4.3725681 0 0 1 -.0019531-.064453 4.3725681 4.3725681 0 0 1 4.3730469-4.3730469 4.3725681 4.3725681 0 0 1 .806641.078125l1.693359-1.6503906-4.830078-.703125z" transform="translate(0 6)"/><path d="m12.5 15c-1.933 0-3.5 1.567-3.5 3.5s1.567 3.5 3.5 3.5 3.5-1.567 3.5-3.5-1.567-3.5-3.5-3.5zm-.5 1h1v2h2v1h-2v2h-1v-2h-2v-1h2z" fill-rule="evenodd"/></g></svg>

<?xml version="1.0" encoding="UTF-8" standalone="no"?>
<!-- Created with Inkscape (http://www.inkscape.org/) -->

<svg
   xmlns:dc="http://purl.org/dc/elements/1.1/"
   xmlns:cc="http://creativecommons.org/ns#"
   xmlns:rdf="http://www.w3.org/1999/02/22-rdf-syntax-ns#"
   xmlns:svg="http://www.w3.org/2000/svg"
   xmlns="http://www.w3.org/2000/svg"
   xmlns:xlink="http://www.w3.org/1999/xlink"
   xmlns:sodipodi="http://sodipodi.sourceforge.net/DTD/sodipodi-0.dtd"
   xmlns:inkscape="http://www.inkscape.org/namespaces/inkscape"
   width="16"
   height="16"
   id="svg2"
   sodipodi:version="0.32"
   inkscape:version="0.92.2 (unknown)"
   version="1.0"
   sodipodi:docname="star-new-symbolic.svg"
   inkscape:output_extension="org.inkscape.output.svg.inkscape"
   style="display:inline">
  <defs
     id="defs4">
    <inkscape:perspective
       sodipodi:type="inkscape:persp3d"
       inkscape:vp_x="0 : 11 : 1"
       inkscape:vp_y="0 : 1000 : 0"
       inkscape:vp_z="22 : 11 : 1"
       inkscape:persp3d-origin="11 : 7.3333333 : 1"
       id="perspective29" />
    <linearGradient
       id="linearGradient4081">
      <stop
         style="stop-color:#aaaaaa;stop-opacity:1;"
         offset="0"
         id="stop4083" />
      <stop
         style="stop-color:#f0f0f0;stop-opacity:1;"
         offset="1"
         id="stop4085" />
    </linearGradient>
    <linearGradient
       inkscape:collect="always"
       xlink:href="#linearGradient4081"
       id="linearGradient3527"
       gradientUnits="userSpaceOnUse"
       gradientTransform="translate(-39,0)"
       x1="6.8391123"
       y1="16.300354"
       x2="6.8391123"
       y2="6.0528178" />
    <linearGradient
       inkscape:collect="always"
       xlink:href="#linearGradient4081"
       id="linearGradient3538"
       gradientUnits="userSpaceOnUse"
       gradientTransform="translate(-39,0)"
       x1="16.5"
       y1="19.542921"
       x2="16.5"
       y2="2.5" />
    <linearGradient
       inkscape:collect="always"
       xlink:href="#linearGradient4081"
       id="linearGradient3540"
       gradientUnits="userSpaceOnUse"
       gradientTransform="translate(-39,0)"
       x1="14.524625"
       y1="17.41902"
       x2="14.524625"
       y2="4.625" />
    <linearGradient
       inkscape:collect="always"
       xlink:href="#linearGradient4081"
       id="linearGradient3542"
       gradientUnits="userSpaceOnUse"
       gradientTransform="translate(-39,0)"
       x1="10.50519"
       y1="15.28125"
       x2="10.50519"
       y2="6.7458849" />
    <linearGradient
       inkscape:collect="always"
       xlink:href="#linearGradient4081"
       id="linearGradient3266"
       x1="9"
       y1="4.5"
       x2="14"
       y2="4.5"
       gradientUnits="userSpaceOnUse"
       gradientTransform="matrix(0,-1,1,0,6,16)" />
    <linearGradient
       inkscape:collect="always"
       xlink:href="#linearGradient4081"
       id="linearGradient3274"
       x1="11.984375"
       y1="20"
       x2="11.984375"
       y2="7.96875"
       gradientUnits="userSpaceOnUse" />
    <linearGradient
       inkscape:collect="always"
       xlink:href="#linearGradient4081"
       id="linearGradient3280"
       gradientUnits="userSpaceOnUse"
       gradientTransform="matrix(0,-1,1,0,7,16)"
       x1="9"
       y1="4.5"
       x2="14"
       y2="4.5" />
    <linearGradient
       inkscape:collect="always"
       xlink:href="#linearGradient4081"
       id="linearGradient3287"
       gradientUnits="userSpaceOnUse"
       gradientTransform="matrix(0,-1,1,0,7,16)"
       x1="9"
       y1="4.5"
       x2="14"
       y2="4.5" />
    <linearGradient
       inkscape:collect="always"
       xlink:href="#linearGradient4081"
       id="linearGradient3293"
       gradientUnits="userSpaceOnUse"
       x1="11.984375"
       y1="20"
       x2="11.984375"
       y2="7.96875"
       gradientTransform="translate(-1,0)" />
    <inkscape:perspective
       id="perspective4374"
       inkscape:persp3d-origin="0.5 : 0.33333333 : 1"
       inkscape:vp_z="1 : 0.5 : 1"
       inkscape:vp_y="0 : 1000 : 0"
       inkscape:vp_x="0 : 0.5 : 1"
       sodipodi:type="inkscape:persp3d" />
    <linearGradient
       inkscape:collect="always"
       xlink:href="#StandardGradient-1"
       id="linearGradient3833-8"
       x1="54"
       y1="3.5"
       x2="59"
       y2="3.5"
       gradientUnits="userSpaceOnUse"
       gradientTransform="translate(-53,53)" />
    <linearGradient
       id="StandardGradient-1"
       gradientTransform="matrix(0.9984539,0,0,0.9984539,-0.0459776,0.05767558)"
       x1="10.710332"
       y1="1.9963325"
       x2="10.710332"
       y2="18.974037"
       gradientUnits="userSpaceOnUse">
      <stop
         style="stop-color:#000000;stop-opacity:0.86274511;"
         offset="0"
         id="stop3277-4" />
      <stop
         style="stop-color:#000000;stop-opacity:0.47058824;"
         offset="1"
         id="stop3279-3" />
    </linearGradient>
    <linearGradient
       y2="3.5"
       x2="59"
       y1="3.5"
       x1="54"
       gradientTransform="translate(-45,53)"
       gradientUnits="userSpaceOnUse"
       id="linearGradient3829-0"
       xlink:href="#SpecificGradient-5"
       inkscape:collect="always" />
    <linearGradient
       id="SpecificGradient-5"
       x1="10.761708"
       y1="3.9999998"
       x2="10.761708"
       y2="18.011395"
       gradientUnits="userSpaceOnUse">
      <stop
         style="stop-color:#a50000;stop-opacity:1;"
         offset="0"
         id="stop3292-8" />
      <stop
         style="stop-color:#e73800;stop-opacity:1;"
         offset="1"
         id="stop3294-0" />
    </linearGradient>
    <linearGradient
       inkscape:collect="always"
       xlink:href="#StandardGradient-1"
       id="linearGradient3659"
       gradientUnits="userSpaceOnUse"
       x1="-15.94624"
       y1="-0.66848934"
       x2="-15.94624"
       y2="17.008953"
       gradientTransform="matrix(1.0182469,0,0,1.0182469,24.23721,3.6806872)" />
    <linearGradient
       inkscape:collect="always"
       xlink:href="#StandardGradient-1"
       id="linearGradient3663"
       gradientUnits="userSpaceOnUse"
       x1="-15.94624"
       y1="-0.66848934"
       x2="-15.94624"
       y2="17.008953" />
    <linearGradient
       inkscape:collect="always"
       xlink:href="#StandardGradient-1"
       id="linearGradient3668"
       gradientUnits="userSpaceOnUse"
       x1="-15.94624"
       y1="-0.66848934"
       x2="-15.94624"
       y2="17.008953" />
    <clipPath
       clipPathUnits="userSpaceOnUse"
       id="clipPath3673">
      <path
         style="fill:#ff00ff;fill-opacity:1;stroke:none;display:inline"
         d="m -23.802881,-2.6326495 0,21.6057615 21.6057616,0 0,-21.6057615 -21.6057616,0 z M -13,-0.66848934 l 2.27106,2.85417024 3.5907302,-0.7365601 -0.09207,3.6828003 3.1917603,1.7186402 -2.4245102,2.7621002 1.3503601,3.3759005 -3.6214203,0.55242 -1.1355301,3.46797 -3.13038,-1.90278 -3.130381,1.90278 -1.13553,-3.46797 -3.62142,-0.55242 1.35036,-3.3759005 -2.42451,-2.7621002 3.19176,-1.7186402 -0.09207,-3.6828003 3.590731,0.7365601 L -13,-0.66848934 z"
         id="path3675"
         inkscape:connector-curvature="0" />
    </clipPath>
    <linearGradient
       inkscape:collect="always"
       xlink:href="#StandardGradient-1"
       id="linearGradient5781"
       gradientUnits="userSpaceOnUse"
       x1="-15.94624"
       y1="-0.66848934"
       x2="-15.94624"
       y2="17.008953" />
    <linearGradient
       inkscape:collect="always"
       xlink:href="#StandardGradient-1"
       id="linearGradient5785"
       gradientUnits="userSpaceOnUse"
       x1="-15.94624"
       y1="-0.66848934"
       x2="-15.94624"
       y2="17.008953"
       gradientTransform="matrix(1.0182469,0,0,1.0182469,24.23721,2.6806872)" />
  </defs>
  <sodipodi:namedview
     id="base"
     pagecolor="#ffffff"
     bordercolor="#e7e7e7"
     borderopacity="1"
     inkscape:pageopacity="0.0"
     inkscape:pageshadow="2"
     inkscape:zoom="22.640001"
     inkscape:cx="8.5135553"
     inkscape:cy="5.4483035"
     inkscape:document-units="px"
     inkscape:current-layer="layer1"
     showgrid="false"
     inkscape:showpageshadow="false"
     showguides="false"
     inkscape:guide-bbox="true"
     inkscape:window-width="1366"
     inkscape:window-height="706"
     inkscape:window-x="0"
     inkscape:window-y="0"
     inkscape:window-maximized="1">
    <sodipodi:guide
       orientation="1,0"
       position="0,112"
       id="guide2383"
       inkscape:locked="false" />
    <sodipodi:guide
       orientation="0,1"
       position="26.278146,128"
       id="guide2385"
       inkscape:locked="false" />
    <sodipodi:guide
       orientation="1,0"
       position="128,54.082119"
       id="guide2387"
       inkscape:locked="false" />
    <sodipodi:guide
       orientation="0,1"
       position="78.156291,0"
       id="guide2389"
       inkscape:locked="false" />
    <sodipodi:guide
       orientation="0,1"
       position="60.863576,64.084768"
       id="guide2391"
       inkscape:locked="false" />
    <inkscape:grid
       type="xygrid"
       id="grid3672"
       visible="true"
       enabled="true"
       empspacing="8"
       snapvisiblegridlinesonly="true" />
  </sodipodi:namedview>
  <metadata
     id="metadata7">
    <rdf:RDF>
      <cc:Work
         rdf:about="">
        <dc:format>image/svg+xml</dc:format>
        <dc:type
           rdf:resource="http://purl.org/dc/dcmitype/StillImage" />
        <dc:title></dc:title>
      </cc:Work>
    </rdf:RDF>
  </metadata>
  <g
     inkscape:label="Icon"
     inkscape:groupmode="layer"
     id="layer1"
     style="display:inline"
     transform="translate(0,-6)">
    <path
       style="color:#000000;display:inline;overflow:visible;visibility:visible;fill:#bebebe;fill-opacity:1;fill-rule:nonzero;stroke:none;stroke-width:1.29943168;marker:none;enable-background:accumulate"
       d="M 8.0117188 1.4746094 L 5.8496094 5.8496094 L 1.0175781 6.5507812 L 4.5117188 9.9589844 L 3.6855469 14.769531 L 8.0058594 12.5 L 8.1289062 12.564453 A 4.3725681 4.3725681 0 0 1 8.1269531 12.5 A 4.3725681 4.3725681 0 0 1 12.5 8.1269531 A 4.3725681 4.3725681 0 0 1 13.306641 8.2050781 L 15 6.5546875 L 10.169922 5.8515625 L 8.0117188 1.4746094 z "
       transform="translate(0,6)"
       id="path3649" />
    <path
       style="color:#000000;clip-rule:nonzero;display:inline;overflow:visible;visibility:visible;opacity:1;isolation:auto;mix-blend-mode:normal;color-interpolation:sRGB;color-interpolation-filters:linearRGB;solid-color:#000000;solid-opacity:1;fill:#bebebe;fill-opacity:1;fill-rule:evenodd;stroke:none;stroke-width:1;stroke-linecap:butt;stroke-linejoin:miter;stroke-miterlimit:4;stroke-dasharray:none;stroke-dashoffset:0;stroke-opacity:1;color-rendering:auto;image-rendering:auto;shape-rendering:auto;text-rendering:auto;enable-background:accumulate"
       sodipodi:nodetypes="sssssccccccccccccc"
       id="path6731"
       d="M 12.5,15 C 10.567,15 9,16.567 9,18.5 9,20.433 10.567,22 12.5,22 14.433,22 16,20.433 16,18.5 16,16.567 14.433,15 12.5,15 Z M 12,16 h 1 v 2 h 2 v 1 h -2 v 2 h -1 v -2 h -2 v -1 h 2 z"
       inkscape:connector-curvature="0" />
  </g>
</svg>
